assets/icons/qvision/circle_notifications.svg

<svg xmlns="http://www.w3.org/2000/svg" height="24" viewBox="0 0 24 24" width="24"><path d="M0 0h24v24H0z" fill="none"/><path d="M12 2C6.48 2 2 6.48 2 12s4.48 10 10 10 10-4.48 10-10S17.52 2 12 2zm0 16.5c-.83 0-1.5-.67-1.5-1.5h3c0 .83-.67 1.5-1.5 1.5zm5-2.5H7v-1l1-1v-2.61C8 9.27 9.03 7.47 11 7v-.5c0-.57.43-1 1-1s1 .43 1 1V7c1.97.47 3 2.28 3 4.39V14l1 1v1z"/></svg>

<svg width="24" height="24" viewBox="0 0 24 24" fill="none" xmlns="http://www.w3.org/2000/svg">
<g clip-path="url(#clip0_147_4014)">
<path d="M12 2C6.48 2 2 6.48 2 12C2 17.52 6.48 22 12 22C17.52 22 22 17.52 22 12C22 6.48 17.52 2 12 2ZM12 18.5C11.17 18.5 10.5 17.83 10.5 17H13.5C13.5 17.83 12.83 18.5 12 18.5ZM17 16H7V15L8 14V11.39C8 9.27 9.03 7.47 11 7V6.5C11 5.93 11.43 5.5 12 5.5C12.57 5.5 13 5.93 13 6.5V7C14.97 7.47 16 9.28 16 11.39V14L17 15V16Z" fill="#323232"/>
</g>
<defs>
<clipPath id="clip0_147_4014">
<rect width="24" height="24" fill="white"/>
</clipPath>
</defs>
</svg>
